X: 15947
T: Granny In The Wood, The
R: polka
M: 2/4
K: Gmajor
g4 f4|edef e2d2|BGBd egd2|BGBd e2d2|
g4 f4|edef e2d2|BG(3Bcd e2d2|1 BGAF G4:|2 BGAF G2(3ABc||
d2 G2 GBAG|F2 A2 A2(3Bcd|e2 d2 BABd|e2 A2 ABcA|
d2 G2 GBAG|F2 A2 A2(3Bcd|e2 d2 BddB|A2 G2 G4:|

